X:155
T: Hag with Her Keg on her Shoulder
T: Chailleach is a Ceag ar a Gualainn
S: B.Breathnach: "Ceol Rince na hEireann" II/36
Z: B.Black
L: 1/8
M: 6/8
R: jig
K: Dmix
G|FDD EFG|Add eag|fdd edd|GFG E2 A/G/|
FDD cAG|Add eag|fdd cAG|Add d2 :|
A|dfa dfa|dfa agf|efg efg|faf gfe|
dfd gfg|abg efg|fed cAG|Add d2 :|

